src/images/mobile-icons/time_speed.svg

<svg viewBox="0 0 512 512" version="1.1" xmlns="http://www.w3.org/2000/svg" xmlns:xlink="http://www.w3.org/1999/xlink">
    <title>time_speed</title>
    <g fill-rule="evenodd">
      <path d="M298.467015,64 C367.06203,63.9297826 430.484221,100.458871 464.843406,159.827803 C499.202757,219.197023 499.278997,292.386936 465.043406,351.827609 C430.807713,411.268459 367.461329,447.929339 298.867259,448.00019 C273.797156,448.026895 249.355898,443.234381 226.584613,434.005021 C218.355556,430.669727 210.375861,426.766953 202.698791,422.328932 C192.498475,416.432252 189.009688,403.383058 194.906368,393.182742 C200.803048,382.982426 213.852242,379.493639 224.052558,385.390319 C230.019767,388.839891 236.21975,391.872228 242.611355,394.46279 C260.298756,401.631618 279.284177,405.354335 298.822439,405.333435 C352.173801,405.278415 401.443063,376.764483 428.070789,330.532773 C454.698466,284.301147 454.639169,227.375671 427.915234,181.19962 C401.191374,135.023698 351.862774,106.612053 298.511398,106.666745 C244.595468,106.723644 195.748426,135.569307 169.258397,181.419299 C163.364268,191.62109 150.315948,195.11314 140.114157,189.219012 C129.912366,183.324883 126.420316,170.276563 132.314444,160.074772 C166.344203,101.17472 229.171601,64.0732314 298.467015,64 Z" fill-rule="nonzero"></path>
      <path d="M383.966628,277.30077 L298.66668,277.30077 C286.92577,277.246033 277.42143,267.741703 277.366693,256.000805 L277.366693,149.30098 C277.366693,137.537335 286.903022,128.001015 298.66668,128.001015 C310.430338,128.001015 319.966667,137.537335 319.966667,149.30098 L319.966667,234.70084 L383.966628,234.70084 C395.730286,234.70084 405.266615,244.237159 405.266615,256.000805 C405.266615,267.764451 395.730286,277.30077 383.966628,277.30077 Z" fill-rule="nonzero"></path>
      <rect  x="42.6666667" y="234.667578" width="192" height="42.6666667" rx="21.3333333"></rect>
      <rect  x="42.6666667" y="320.000912" width="149.333333" height="42.6666667" rx="21.3333333"></rect>
    </g>
</svg>

<svg width="512" height="512">
  <title>time_speed</title>
  <path d="M298.467 64c68.595-.07 132.017 36.459 166.376 95.828 34.36 59.369 34.436 132.559.2 192-34.235 59.44-97.582 96.101-166.176 96.172-25.07.027-49.511-4.766-72.282-13.995a191.31 191.31 0 01-23.886-11.676c-10.2-5.897-13.69-18.946-7.793-29.146 5.897-10.2 18.946-13.69 29.147-7.793a148.644 148.644 0 0018.558 9.073c17.688 7.169 36.673 10.891 56.211 10.87 53.352-.055 102.621-28.569 129.249-74.8 26.627-46.232 26.568-103.157-.156-149.333s-76.052-74.588-129.404-74.533c-53.916.057-102.763 28.902-129.253 74.752-5.894 10.202-18.942 13.694-29.144 7.8-10.202-5.894-13.694-18.942-7.8-29.144 34.03-58.9 96.858-96.002 166.153-96.075z" fill-rule="nonzero"/>
  <path d="M383.967 277.3h-85.3c-11.741-.054-21.246-9.558-21.3-21.3V149.302c0-11.764 9.536-21.3 21.3-21.3 11.763 0 21.3 9.536 21.3 21.3v85.4h64c11.763 0 21.3 9.536 21.3 21.3 0 11.763-9.537 21.3-21.3 21.3z" fill-rule="nonzero"/>
  <rect x="42.667" y="234.668" width="192" height="42.667" rx="21.333"/>
  <rect x="42.667" y="320.001" width="149.333" height="42.667" rx="21.333"/>
</svg>
